X:75
T:Nos Galan (Mon) - New Years Eve
M:2/4
L:1/8
Q:200
C:Trad.
R:Processional
N:Version from Anglesey
K:G
EF GA | EF FE | DE FE | FE D2 | EF GA |
EF FE | DE FE | D2 D2 :|| F2 G2 | A2 E2 |
F2 G2 | A2 E2 | FG A2 | GA B2 | c2 B2 | AF DF|
EF GA | EF FE | DE FE | FE D2 | EF G A|
| EF FE | DE FE | D2 D2 ||
